packages/tokens/icons/speedTime/size16Px.svg

<svg viewBox="0 0 16 16" fill="none" xmlns="http://www.w3.org/2000/svg" width="1em" height="1em"><circle cx="10" cy="8" r="4.5" stroke="currentColor" stroke-linejoin="round"/><path d="M10.002 5.5L10.002 8.35714L11.5001 9.5" stroke="currentColor" stroke-linecap="round" stroke-linejoin="round"/><path d="M1.5 6L3.5 6M2.5 3.5L9.5 3.5M2.5 12.5L9.5 12.5M1.5 9.5H3.5" stroke="currentColor" stroke-linecap="round"/></svg>

<svg xmlns="http://www.w3.org/2000/svg" fill="none" viewBox="0 0 16 16" width="1em" height="1em"><circle cx="10" cy="8" r="4.5" stroke="currentColor" stroke-linejoin="round"/><path stroke="currentColor" stroke-linecap="round" stroke-linejoin="round" d="M10.002 5.5v2.857L11.5 9.5"/><path stroke="currentColor" stroke-linecap="round" d="M1.5 6h2m-1-2.5h7m-7 9h7m-8-3h2"/></svg>
